X: 81
T: 81. Christus, der uns delig macht
N: Derived from chor081.krn
C: Johann Sebastian Bach
%%abc-version 2.0
%%abcx-abcm2ps-target-version 5.9.1 (29 Sep 2008)
%%abc-creator hum2abc beta
%%abcx-conversion-date 2019/03/11 17:28:18
%%abc-edited-by Craig Stuart Sapp
%%humdrum-veritas 2613246517
%%humdrum-veritas-data 1812833524
%%
%%barnumbers 0
L: 1/4
M: C
%%staves [1 2 3 4]
V: 1 clef=treble
V: 2 clef=treble
V: 3 clef=treble-8
V: 4 clef=bass
K: C
[V:1] eeee | 
[V:2] ^GGAB | 
[V:3] BBcB/c/ | 
[V:4] E,E,A,=G, | 
[V:1] dc!fermata!B2 | 
[V:2] AA!fermata!^G2 | 
[V:3] d/e/f!fermata!B2 | 
[V:4] F,E,/D,/!fermata!E,2 | 
[V:1] cdee | 
[V:2] E/^F/=GG=F/E/ | 
[V:3] A_B_BA | 
[V:4] A,G,^C,C, | 
[V:1] dc!fermata!B2 | 
[V:2] FE!fermata!E2 | 
[V:3] A2!fermata!^G2 | 
[V:4] D,A,,!fermata!E,2 | 
[V:1] ABcA | 
[V:2] EEEF | 
[V:3] cBA/B/ c/d/ | 
[V:4] A,^G,A,F, | 
[V:1] A/=G/F!fermata!E2 | 
[V:2] ED!fermata!^C2 | 
[V:3] eA!fermata!A2 | 
[V:4] ^C,D,!fermata!A,,2 | 
[V:1] FGAA | 
[V:2] DE_ED | 
[V:3] A=ccc | 
[V:4] D,=C,F,,^F,, | 
[V:1] GF!fermata!E2 | 
[V:2] D2!fermata!^C2 | 
[V:3] _B/c/d!fermata!A2 | 
[V:4] G,,^G,,!fermata!A,,2 | 
[V:1] A^GAB | 
[V:2] DEE^F/^G/ | 
[V:3] A=Bcd | 
[V:4] F,E,/D,/C,B,, | 
[V:1] cB!fermata!A2 | 
[V:2] A=G!fermata!^F2 | 
[V:3] ed!fermata!d2 | 
[V:4] A,,B,,/C,/!fermata!D,2 | 
[V:1] cdee | 
[V:2] GGG=F | 
[V:3] c_BAA | 
[V:4] _E,D,^C,D,/=E,/ | 
[V:1] dc!fermata!B2 | 
[V:2] FE/^F/!fermata!G2 | 
[V:3] A/=B/c!fermata!d2 | 
[V:4] F,/G,/A,!fermata!G,2 | 
[V:1] ABcA | 
[V:2] AEEE | 
[V:3] d/c/BA/B/ c/d/ | 
[V:4] ^F,^G,A,A,,/B,,/ | 
[V:1] A/G/F!fermata!E2 | 
[V:2] A,D!fermata!^C2 | 
[V:3] eA!fermata!A2 | 
[V:4] ^C,D,!fermata!A,,2 | 
[V:1] FGAA | 
[V:2] DEFF | 
[V:3] A=ccc | 
[V:4] D,=C,F,,/G,,/A,,/B,,/ | 
[V:1] GFE2- | 
[V:2] ED2C | 
[V:3] c/B/A^GA | 
[V:4] C,D,E,2- | 
[V:1] !fermata!E4 |]  
[V:2] !fermata!B,4 |]  
[V:3] !fermata!^G4 |]  
[V:4] !fermata!E,4 |]  



